!!!ONB: MCCC : IAD0125_04 : Extracted Monophonic Melody
!!!COM: Dvořák, Antonín
!!!OPR: Violin Sonata
!!!OMV: 4
!!!SCT: Op.57 ; B.106
!!!ODT: 1880///
**kern
*staff1
=1
*clefG2
*k[f#]
*G:
*M4/4
4bb
4aa
8gg
8gg
8ee
8dd
=2
4b
8dd
8ee
2a
=3
16b
8.bb
4aa
8gg
8gg
8ee
8dd
=4
4b
8b
8a
4g
4e
=5
8d
8e
8f
8f#
2g
=6
4g
4gg
2dd
=7
8d
8e
8f
8f#
2g
=8
8g
8b
8dd
8cc
4b
4g
=9
1r
=10
1r
=11
4gg
8gg
8ff
4dd#
4dd
=12
8cc
8dd
8dd#
8cc
4a
4g
=13
1r
=14
1r
=15
4gg
8gg
8ff
4dd#
4dd
=16
8cc
8dd
8dd#
8cc
8cc
8dd
16dd#
16dd
8cc
=17
16cc
16dd
16cc
16dd
8dd#
8cc
4a
4dd
=18
16dd
8.bb
4aa
8gg
8gg
8ee
8dd
=19
4b
8dd
8ee
2a
=20
16b
8.bb
4aa
8gg
8gg
8ee
8dd
=21
8b
8gg
4a
2g
=22
1r
=23
1r
=24
2r
16b
8.bb
16b
8.aa
=25
4gg
16aa
8.aa
4ff#
8gg
8ee
=26
4.dd#
8b
4ff#
8gg
8ee
=27
4.dd#
8b
8d#
8f#
8g
8e
=28
8d#
8f#
8g
8e
8d#
8f#
8g
8e
=29
8d#
8f#
8g
8e
4.b
8b
=30
4.b
8b
4.b
8b
=31
4.b
8b
8.ee
16b
8.ee
16ff#
=32
8.gg
16gg
8.ff#
16gg
8.ee
16ee
8.ff#
16ee
=33
2b
8.b
16gg
8.ff#
16ee
=34
8.dd
16ee
8.dd
16b
8.b
16a
8.b
16a
=35
8f#
4.b
2b[
=36
2b]
4.gg
16ff#
16ee
=37
8dd
8gg
8dd
8b
2dd
=38
32ee
32dd#
32ee
32dd#
32ee
32dd#
32ee
32dd#
32ee
32dd#
32ee
32dd#
32ee
32dd#
32ee
32dd#
8.ee
16b
8.dd#
16b
=39
4b
4ee
8ee
8gg
16bb
16bb
8bb
=40
16bb
16gg
16ee
16ee
4ee
8eee
8aa
8bb
8ee
=41
8eee
8aa
8bb
8ee
8eee
8aa
8bb
8ee
=42
8ff#
8ff#
4bb
8e
8g
16b
16b
8b
=43
16b
16g
16e
16e
4e
8ee
8a
8b
8e
=44
8ee
8a
8b
8e
8ee
8a
8ee
8b-
=45
4b
4bb
8.ee
16b
8.ee
16ff#
=46
8.gg
16gg
8.ff#
16gg
8.ee
16ee
8.ff#
16ee
=47
4ee
4b
8.b
16gg
8.ff#
16ee
=48
8.dd
16ee
8.dd
16b
8.b
16a
8.f#
16e
=49
2e
8.b
16a
8.f#
16e
=50
2e
4b
4a
=51
4g
4e
8.e
16e
8.e
16e
=52
8.e
16e
8.e
16e
8.e
16e
8.e
16e
=53
8.e
16e
8.e
16e
4.e
8f#
=54
8g#
4.b
4cc#
12ee
12dd#
12cc#
=55
8ee
4.b
4.e
8f#
=56
8g#
8a
8b
8ee
4gg#
8.ff#
16cc#
=57
2ee
4.gg#
8ff#
=58
4ee
8dd#
8cc#
4g#
4b[
=59
4b]
4r
4.gg#
8ff#
=60
4ee
8dd#
8cc#
4g#
4b[
=61
4b]
4r
4.e
8f#
=62
8g#
4.b
4cc
8ee
8dd
=63
8cc
4.g
4.g#
8a
=64
8b
4.ee
4gg#
8gg#
8ff#
=65
4ee[
4ee]
4e
4e
=66
4e
4e
4e
4e
=67
4e
4e
4e
4e
=68
4e
4e
4e
4e[
=69
8e]
8g#
8b
8ee
2ee
=70
8e
8g#
8b
8ee
2ee
=71
8ee
8gg#
8bb
8eee
2eee
=72
1eee[
=73
2eee]
4eee
8ccc#
8bb
=74
4bb
8gg#
8ff#
4ee
8cc#
8b
=75
4b
8g#
8f#
2e[
=76
2.e]
4r
=77
1r
=78
1r
=79
2r
4gg
4ff#
=80
4ee
4dd
4cc#
4b
=81
4b-
4ff#
8b
8b
8cc#
8dd#
=82
4ee
8ff#
8gg
4bb
4aa
=83
4gg
8ff#
8ee
16b
16b
16b
16b
16b
16b
16b
16b
=84
16b
16b
16b
16b
16b
16b
16b
16b
16b
16bb
8bb
8aa
8ff#
=85
4aa
8gg
8ee
16b
16bb
8bb
8aa
8ff#
=86
4aa
8gg
8ee
8gg
8gg
8ff
8dd
=87
4ff
8dd#
8cc
8gg
8gg
8ff
8dd
=88
4ff
8dd#
8cc
2gg#
=89
2cc
8cc#
8cc#
8a
8g#
=90
8ee
8ee
8dd#
8cc#
2gg#
=91
2cc
8cc#
8cc#
8a
8g#
=92
8ee
8ee
8dd#
8cc#
4aa
12dd#
12ee
12ff#
=93
4gg#
12cc#
12dd#
12ee
4ff#
12b
12cc#
12dd#
=94
4ee
12a
12b
12cc#
4g#
4r
=95
2r
4r
12ee
12dd#
12cc#
=96
12ee
12dd#
12cc#
12ee
12dd#
12cc#
4gg#
4r
=97
2r
4r
12ee
12dd#
12cc#
=98
12ee
12dd#
12cc#
12ee
12dd#
12cc#
4gg#
12gg#
12ee
12dd#
=99
4r
12g#
12e
12d#
4r
12g#
12e
12d#
=100
12g#
12e
12d#
12g#
12e
12d#
2c#
=101
1c#[
=102
2c#]
4c#
4c#
=103
4c#
4c#
4c#
4c#
=104
4c#
8c#
8d
4d
4d
=105
4d
4d
4.d
8d
=106
8d
8f#
8a
8dd
4ff#
4ee
=107
4dd
4a
4ff#
4ee
=108
4dd
4a
4dd
4a
=109
4dd
4a
8dd
8a
8dd
8a
=110
8dd
8a
8dd
8bb
4bb
4aa
=111
8gg
8gg
8ee
8dd
4b
8dd
8ee
=112
2a
16b
8.bb
4aa
=113
8gg
8gg
8ee
8dd
8b
8dd
8ee
8a
=114
2g
2r
=115
1r
=116
2r
4gg
4ff
=117
4dd#
4dd
4cc
8dd
8dd#
=118
2dd
2r
=119
1r
=120
2r
4ddd
4ccc
=121
4bb-
4aa
4gg
4aa
=122
2dd
4gg
4aa
=123
2dd
4gg
4aa
=124
4.dd
8dd
4.dd
8dd
=125
4.dd
8dd
4.dd
8dd
=126
8.gg
16dd
8.gg
16aa
8.bb-
16bb-
8.aa
16bb-
=127
8.gg
16gg
8.aa
16gg
2dd
=128
8.dd
16bb-
8.aa
16gg
8.ff
16gg
8.ff
16dd
=129
8.dd
16cc
8.dd
16cc
8a
4.dd
=130
1dd
=131
4.bb-
16aa
16gg
8ff
8bb-
8ff
8dd
=132
2ff
32gg
32ff#
32gg
32ff#
32gg
32ff#
32gg
32ff#
32gg
32ff#
32gg
32ff#
32gg
32ff#
32gg
32ff#
=133
8.gg
16dd
8.ff#
16dd
4dd
4gg
=134
8g
8b-
16dd
16dd
8dd
16dd
16b-
8g
4g
=135
8gg
8cc
8dd
8g
8gg
8cc
8dd
8g
=136
8gg
8cc
8dd
8g
8a
8a
4dd
=137
8g
8b-
16dd
16dd
8dd
16dd
16b-
8g
4g
=138
8gg
8cc
8dd
8g
8gg
8cc
8dd
8g
=139
8gg
8cc
8gg
8cc#
4dd
4ddd
=140
8.gg
16dd
8.gg
16aa
8.bb-
16bb-
8.aa
16bb-
=141
8.gg
16gg
8aa
16gg
16gg
4ff
4dd]
=142
8.dd
16bb-
8.aa
16gg
8.ff
16gg
8.ff
16dd
=143
8.dd
16cc
8.a
16g
2g
=144
8.dd
16cc
8.a
16g
2g
=145
4dd
4cc
4b-
4g
=146
8.g
16g
8.g
16g
8.g
16g
8.g
16g
=147
8.g
16g
8.g
16g
8.g
16g
8.g
16g
=148
4.g
8a
8b
4.dd
=149
4ee
12gg
12ff#
12ee
8gg
4.dd
=150
4.g
8a
8b
8dd
8gg
8aa
=151
8.bb
16gg
8.ee
16dd
2gg
=152
4.bb
8aa
4gg
8ff#
8ee
=153
4b
2.dd
=154
4.bb
8aa
4gg
8ff#
8ee
=155
8b
8dd
2.dd
=156
4.g
8a
8b
4.dd
=157
4dd#
8gg
8ff
8dd#
4.b-
=158
4.b
8cc
8dd
4.gg
=159
4bb
8bb
8aa
2gg
=160
8g
8g
4g
4g
4g
=161
4g
4g
4g
4g
=162
4g
4g
4g
4g
=163
4.g
8g
8g
8b
8dd
8gg
=164
2gg
8g
8b
8dd
8gg
=165
2gg
8g
8b
8dd
8gg
=166
32aa
32gg
32aa
32gg
32aa
32gg
32aa
32gg
32aa
32gg
32aa
32gg
32aa
32gg
32aa
32gg
32aa
32gg
32aa
32gg
32aa
32gg
32aa
32gg
32aa
32gg
32aa
32gg
32aa
32gg
32aa
32gg
=167
32aa
32gg
32aa
32gg
32aa
32gg
32aa
32gg
32aa
32gg
32aa
32gg
32aa
32gg
32aa
32gg
32aa
32gg
32aa
32gg
32aa
32gg
32aa
32gg
32aa
32gg
32aa
32gg
32aa
32gg
32aa
32gg
=168
4bb
8aa
8gg
4gg
8ee
8dd
=169
4dd
8b
8a
8g
8e
8d
8B
=170
1G[
=171
4G]
4r
2r
=172
4.e
8ee
2ee
=173
4.ee
8eee
2eee
=174
8eee
8eee
8ddd
8ccc
8ccc
8ccc
8bb
8aa
=175
8aa
8aa
8gg
8ff#
8ff#
8ff#
8ee
8dd
=176
8gg
8dd
8gg
8ee
8gg
8dd
8cc
8a
=177
16dd
8.bb
4aa
8gg
8gg
8ee
8dd
=178
4bb
4aa
8gg
8gg
8ee
8dd
=179
4bb
4aa
8gg#
8gg#
8ff
8ee
=180
4bb
4aa
8gg#
8gg#
8ff
8ee
=181
4eee
4ddd
16ccc
16ccc
16ccc
16ccc
16bb
16bb
16aa
16aa
=182
16aa
16aa
16aa
16aa
16gg
16gg
16ff#
16ff#
16ff#
16ff#
16ff#
16ff#
16ee
16ee
16dd
16dd
=183
16gg
16gg
16dd
16dd
16gg
16gg
16ee
16ee
16gg
16gg
16dd
16dd
16cc
16cc
16a
16a
=184
16gg
16gg
16dd
16dd
16gg
16gg
16ee
16ee
16gg
16gg
16dd
16dd
16cc
16cc
16a
16a
=185
16gg
16gg
16dd
16dd
16cc
16cc
16a
16a
16gg
16gg
16dd
16dd
16cc
16cc
16a
16a
=186
16gg
16gg
16dd
16dd
16cc
16cc
16a
16a
16gg
16gg
16dd
16dd
16cc
16cc
16a
16a
=187
16gg
16gg
16ee
16ee
16dd
16dd
16b
16b
16dd
16dd
16b
16b
16g
16g
16e
16e
=188
16b
16b
16g
16g
16e
16e
16d
16d
16g
16g
16e
16e
16d
16d
16B
16B
=189
4G
4gg
4G
4gg
=190
2g
2r
==
*-
